!!!!SEGMENT: pl-wumfc--n50519_moniuszko-stanislaw--piesn-maryi-slonko-niedzielne-swieci-jasna-pogoda.krn
!!!cenid: 18xx:4077
!!!COM: Moniuszko, Stanisław
!!!COM-rismID: pe30008351
!!!CDT: 1819/05/05-1872/06/04
!!!CNT: Polish
!!!OTL: Pieśń Maryi/Słonko niedzielne świeci jasną pogodą
!!!PDT:
!!!AGN:
!!!SMS-siglum: PL-Wumfc
!!!SMS-shelfmark: N50519
!!!SMS-shelfwork: W
!!!SMS-variant:
!!!SMS-altvar:
!!!NIFC-rismSourceID: 1001171410
!!!NIFC-rismChildID: 1001171410
!!!NIFC-islandoraID: pl-wumfc:6668
!!!URL-pdf-islandora: https://repozytorium.nifc.pl/islandora/object/pl-wumfc%3A6668/datastream/PDF/view
!!!URL-scan: https://polish.musicsources.pl/pl/lokalizacje/galeria/druki-muzyczne/12535-piesn-maryi @EN{Scan on Polish Music Sources Website} @PL{Skany w portalu Dziedzictwo Muzyki Polskiej w otwartym dostępie}
!!!ONB-nifc:
!!!AIN: 1 piano 1 soprn
!!!key: B
**kern	**kern	**dynam	**kern	**text	**dynam
*part2	*part2	*part2	*part1	*part1	*part1
*staff3	*staff2	*	*staff1	*staff1	*
*I"Fortepian.	*I"Fortepian.	*	*I"Pieśń.	*	*
*Ipiano	*Ipiano	*	*Isoprn	*	*
*ICklav	*ICklav	*	*ICvox	*	*
*IGacmp	*IGacmp	*	*IGsolo	*	*
*clefF4	*clefG2	*	*clefG2	*	*
*k[f#c#g#d#a#]	*k[f#c#g#d#a#]	*	*k[f#c#g#d#a#]	*	*
*B:	*B:	*	*B:	*	*
*M3/4	*M3/4	*	*M3/4	*	*
=1	=1	=1	=1	=1	=1
*	*^	*	*	*	*
!!LO:TX:B:a:t=Allegretto.
8F#L 8BB'\	2.r	8d#'>\L	p	2.r	.	.
8F# 8BB'\	.	8d#'>\	.	.	.	.
8F# 8BB'\	.	8d#'>\	.	.	.	.
8F# 8BB'\	.	8d#'>\	.	.	.	.
8F# 8BB'\	.	8d#'>\	.	.	.	.
8F#J 8BB'\	.	8d#'>\J	.	.	.	.
=2	=2	=2	=2	=2	=2	=2
!	!LO:TX:i:a:t=dolce	!	!	!	!	!
8A#L 8F# 8BB'\	(4.ff#^/	8e\L	.	2.r	.	.
8A# 8F# 8BB'\	.	8e\	.	.	.	.
8A# 8F# 8BB'\	.	8e\	.	.	.	.
8A# 8F# 8BB'\	8ee/L)	8e\	.	.	.	.
8A# 8F# 8BB'\	8dd#'/	8e\	.	.	.	.
8A#J 8F# 8BB'\	8cc#'/J	8e\J	.	.	.	.
=3	=3	=3	=3	=3	=3	=3
8BL 8G# 8BB'\	(4.b/	8e\L	.	2.r	.	.
8B 8G# 8BB'\	.	8e\	.	.	.	.
8B 8G# 8BB'\	.	8e\	.	.	.	.
8B 8G# 8BB'\	8a#/L)	8e\	.	.	.	.
8B 8G# 8BB'\	8g#'/	8e 8c#\	.	.	.	.
8A#J 8BB'\	8f#'/J	8eJ 8c#\	.	.	.	.
*	*v	*v	*	*	*	*
=4	=4	=4	=4	=4	=4
8BL 8F# 8BB'\	8f#L 8d#'/	.	4f#/	Słon-	.
8B 8F# 8BB'\	8f# 8d#'/	.	.	.	.
8B 8F# 8BB'\	8f# 8d#'/	.	8b\	-ko	.
8B 8F# 8BB'\	8f# 8d#'/	.	8a#/	nie-	.
8A# 8F# 8BB'\	8f# 8e'/	.	8.cc#\	-dziel-	.
8A#J 8F# 8BB'\	8f#J 8e'/	.	.	.	.
.	.	.	16f#/	-ne	.
!!LO:LB:g=original
=5	=5	=5	=5	=5	=5
8BL 8F# 8BB\	8f#L 8d#/	.	2b\	świe-	.
8B 8F# 8BB\	8f# 8d#/	.	.	.	.
8B 8F# 8BB\	8f# 8d#/	.	.	.	.
8B 8F# 8BB\	8f# 8d#/	.	.	.	.
8B 8F# 8BB\	8f# 8d#/	.	4f#/	-ci,	.
8BJ 8F# 8BB\	8f#J 8d#/	.	.	.	.
=6	=6	=6	=6	=6	=6
8BL 8F# 8BB\	8f#L 8d#/	.	4dd#\	swie-	.
8B 8F# 8BB\	8f# 8d#/	.	.	.	.
8B 8F# 8BB\	8f# 8d#/	.	8b\	-ci	.
8B 8F# 8BB\	8f# 8d#/	.	8f#/	jas-	.
8B 8F# 8BB\	8f# 8d#/	.	8.d#/	-ną	.
8BJ 8F# 8BB\	8g#J 8d#/	.	.	.	.
.	.	.	16g#/	po-	.
=7	=7	=7	=7	=7	=7
8F#L 8AA#\	8g#L 8e 8c#/	.	2g#/	-go-	.
8F# 8AA#\	8g# 8e 8c#/	.	.	.	.
8F# 8AA#\	8g# 8e 8c#/	.	.	.	.
8F# 8AA#\	8g# 8e 8c#/	.	.	.	.
8F# 8AA#\	8f# 8e 8c#/	.	8f#/	-dą	.
8BJ 8F# 8BB\	8f#J 8d#/	.	8r	.	.
=8	=8	=8	=8	=8	=8
8A#L 8F# 8C#\	8eeL 8e/	.	4ee\	oj-	.
8A# 8F# 8C#\	8ee 8e/	.	.	.	.
8A# 8F# 8C#\	8dd# 8e/	.	8dd#\	-cze	.
8A# 8F# 8C#\	8cc# 8e/	.	8cc#\	bło-	.
8B 8F# 8C#\	8b 8e/	.	8b\	-go-	.
8c#J 8F# 8C#\	8a#J 8e/	.	8a#/	-sław	.
=9	=9	=9	=9	=9	=9
8BL 8D#\	8bL 8f#/	.	2b\	dzie-	.
8B 8D#\	8b 8f#/	.	.	.	.
8B 8D#\	8b 8f#/	.	.	.	.
8B 8D#\	8b 8f#/	.	.	.	.
8B 8E\	8g# 8e/	.	4g#/	-ci!	.
8BJ 8E\	8g#J 8e/	.	.	.	.
!!LO:LB:g=original
=10	=10	=10	=10	=10	=10
8A#L 8F#\	8f#L 8e/	.	4f#/	już	.
8A# 8F#\	8f# 8e/	.	.	.	.
8B 8F#\	8g# 8e/	.	8g#/	mię	.
8A# 8F#\	8a# 8e/	.	8a#/	do	.
8G# 8F#\	8b 8e/	.	8b\	ślu-	.
8A#J 8F#\	8cc#J 8e/	.	8cc#\	-bu	.
=11	=11	=11	=11	=11	=11
8B\L	8dd#L 8d#/	.	2dd#\	wio-	.
8B\	8f# 8d#/	.	.	.	.
8B\	8b 8f# 8d#/	.	.	.	.
8B\	8dd# 8f# 8d#/	.	.	.	.
8B 8E\	8cc# 8g#/	.	4cc#\	-dą.	.
8BJ 8E\	8cc#J 8g# 8e/	.	.	.	.
=12	=12	=12	=12	=12	=12
8d#L 8F#\	8bL 8f#/	.	4b\	Na	.
8d# 8F#\	8b 8f#/	.	.	.	.
8c# 8F#\	8b 8e/	.	8b\	dwo-	.
8c# 8F#\	8a# 8e/	.	8a#/	-rze	.
8A# 8F#\	8cc# 8e/	.	8.cc#\	goś-	.
8A#J 8F#\	8f#J 8e/	.	.	.	.
.	.	.	16f#/	-ci	.
=13	=13	=13	=13	=13	=13
*^	*	*	*	*	*
(4F#/	8BB\L	8f#L 8d#/	.	2b\	ro-	.
.	8BB\	8f# 8d#/	.	.	.	.
8B/L)	8BB\	8f# 8d#/	.	.	.	.
8A#/	8BB\	8f# 8e/	.	.	.	.
8c#/	8BB\	8a# 8e/	.	4f#/	-je	.
8F#/J	8BB\J	8cc#J 8e/	.	.	.	.
!!LO:PB:g=original
=14	=14	=14	=14	=14	=14	=14
2.F#/	8BB\L	8bL 8d#/	.	4ff#\	tam	.
.	8BB\	8b 8d#/	.	.	.	.
.	8BB\	8f# 8d#/	.	8dd#\	i	.
.	8BB\	8f# 8d#/	.	8b\	lu-	.
.	8BB\	8f# 8d#/	.	8f#/	-be-	.
.	.	.	.	8qa#/	.	.
.	8BB\J	8g#J 8d#/	.	8g#/	-go	.
*v	*v	*	*	*	*	*
=15	=15	=15	=15	=15	=15
8A#L 8C#\	8g#L 8e/	.	4g#/	zo-	.
8A# 8C#\	8g# 8e/	.	.	.	.
8A# 8C#\	8f# 8e/	.	4f#/	-czę,	.
8A# 8C#\	8f# 8e/	.	.	.	.
8B 8D#\	8f# 8d#/	.	4r	.	.
8BJ 8D#\	8bJ 8f#/	.	.	.	.
=16	=16	=16	=16	=16	=16
8BL 8E\	8eeL 8g#\	.	4ee\	druż-	.
8B 8E\	8ee 8g#\	.	.	.	.
8B 8E\	8dd# 8g#\	.	8dd#\	-ki,	.
8B 8E\	8cc# 8g#\	.	8cc#\	wy	.
8c# 8E\	8b 8gn\	.	8b\	sio-	.
8c#J 8E\	8a#J 8g\	.	8a#/	-stry	.
=17	=17	=17	=17	=17	=17
8BL 8D#\	8bL 8f#/	.	2b\	mo-	.
8B 8D#\	8b 8f#/	.	.	.	.
8B 8D#\	8b 8f#/	.	.	.	.
8B 8D#\	8b 8f#/	.	.	.	.
8B 8E\	8g# 8f#/	.	4g#/	-je,	.
8BJ 8E\	8g#J 8e/	.	.	.	.
!!LO:LB:g=original
=18	=18	=18	=18	=18	=18
*^	*	*	*	*	*
(4e/	8F#\L	8f#L 8c#/	.	4f#/	śpiesz-	.
.	8F#\	8f# 8c#/	.	.	.	.
8d#/L)	8F#\	8b 8B/	.	8b\	-cie	.
8c#/	8F#\	8a# 8e/	.	8a#/	mi	.
8B/	8F#\	8dd# 8e/	.	8.dd#\	pleść	.
8A#/J	8F#\J	8cc#J 8e/	.	.	.	.
.	.	.	.	16cc#\	war-	.
*v	*v	*	*	*	*	*
=19	=19	=19	=19	=19	=19
(4B 4BB\	8b 8d#/	.	2b\	-ko-	.
!	!LO:TX:i:b:t=rallent.	!LO:HP:a	!LO:TX:i:a:t=rallent.	!	!
.	4d# 4B/	>	.	.	.
4A# 4AA#\	.	.	.	.	.
.	4d# 4B/	.	.	.	.
4G# 4GG#\)	.	.	8d#/	-cze!	.
.	8d# 8B/	]]	8r	.	.
=20	=20	=20	=20	=20	=20
*^	*	*	*	*	*
!	!	!LO:TX:B:a:t=a tempo,	!	!LO:TX:B:a:t=a tempo,	!	!
8D#/L	2.FF##X\	8d#L 8c# 8A#/	.	4d#/	Kie-	.
8D#/	.	8d# 8c# 8A#/	.	.	.	.
8D#/	.	8d# 8c# 8A#/	.	8e#X/	-ruj	.
!	!	!LO:TX:i:a:t=un poco più lento	!	!LO:TX:i:a:t=un poco più lento	!	!
8D#/	.	8d# 8c# 8A#/	.	8f##X/	pod	.
8D#/	.	8d# 8c# 8A#/	.	8g#/	cmę-	.
8D#/J	.	8d#J 8c# 8A#/	.	8a#/	-tarz	.
=21	=21	=21	=21	=21	=21	=21
8G#/L	2GG#\	8bL 8d# 8B/	.	2b\	ko-	.
8G#/	.	8b 8d# 8B/	.	.	.	.
8G#/	.	8b 8d# 8B/	.	.	.	.
8G#/	.	8b 8d# 8B/	.	.	.	.
8G#/	4C#\	8a# 8e 8c#/	.	4a#/	-nie:	.
8A#/J	.	8a#J 8e 8c#/	.	.	.	.
*v	*v	*	*	*	*	*
=22	=22	=22	=22	=22	=22
(8D#/L	8g#L 8d# 8B/	.	4g#/	pod	.
8DD#/J)	8g# 8B/	.	.	.	.
8D#'/	8b 8d#/	.	8b/	cmę-	.
(8DD#/L	8a# 8d# 8c#/	.	8a#/	-tarz	.
8D#/J)	8g# 8d# 8B/	.	8g#/	druż-	.
8DD#'/	8f##XJ 8d# 8A#/	.	8f##X/	-bo	.
!!LO:LB:g=original
=23	=23	=23	=23	=23	=23
8GG#'/	8g#L 8B/	.	4g#/	mi-	.
(8B\L	8g# 8d#/	.	.	.	.
8A#\	8g# 8d#/	.	4g#/	-ły!	.
8G#\	8g# 8d# 8B/	.	.	.	.
8D#\	8g# 8d# 8B/	.	8r	.	.
8BB\J)	8g#J 8d#/	.	8g#/	Ja	.
=24	=24	=24	=24	=24	=24
!	!	!	!	!	!LO:DY:a
(2E 2EE^/	8cc#L 8g# 8c#/	.	4.cc#\	mat-	>
.	8g# 8c#/	.	.	.	.
.	8g# 8c#/	.	.	.	.
.	8b 8g# 8c#/	.	8b\	-ce	.
8.C#L 8.CC#/	8a# 8e 8c#/	.	8a#/	się	]
.	8g#J 8e 8c# 8B/	.	8g#/	po-	.
16D#Jk 16DD#/	.	.	.	.	.
=25	=25	=25	=25	=25	=25
8E 8EE'/)	8g#L 8c# 8A#/	.	4g#/	-kło-	.
8r	8g# 8c# 8A#/	.	.	.	.
8E 8EE'/	8f##X 8c# 8A#/	.	8f##X/	-nię,	.
8r	8f## 8c# 8A#/	.	8r	.	.
8E 8EE'/	8a# 8f## 8c#/	.	4a#/	prze-	.
8r	8a#J 8f## 8c#/	.	.	.	.
=26	=26	=26	=26	=26	=26
[4E 4EE^/	8cc#L 8g# 8c#/	.	4.cc#\	-że-	.
!	!LO:TX:i:b:t=ral-len-tan-do:ext2=cd:dur=5qe	!	!LO:TX:i:a:t=ral-len-tan-do:ext2=cd:dur=5q	!	!
.	8g# 8c#/	.	.	.	.
(8E'/L]	8cc# 8g# 8c#/	.	.	.	.
8D#'/	8b 8g# 8d#/	.	8b\	-gna	.
8C#'/	8a# 8e/	.	8.a#/	mię	.
8BB'/J)	8g#J 8e 8c#/	.	.	.	.
.	.	.	16g#/	z mo-	.
=27	=27	=27	=27	=27	=27
2.AA#^/	8g#L 8e 8c#/	.	2g#/	-gi-	.
.	8g# 8e 8c#/	.	.	.	.
.	8g# 8e 8c#/	.	.	.	.
.	8g# 8e 8c#/	.	.	.	.
.	8gn 8e 8c#/	.	8gn/	-ły!	.
.	8gJ 8e 8c#/	.	8r	.	.
!!LO:LB:g=original
=28	=28	=28	=28	=28	=28
*^	*	*	*	*	*
!	!	!LO:TX:B:a:t=a tempo Io.	!	!LO:TX:B:a:t=a tempo Io.	!	!LO:DY:a
8BL 8F#/	2.BB\	8f#L 8d#/	pp	4f#/	Z ru-	pp
8B 8F#/	.	8f# 8d#/	.	.	.	.
8B 8F#/	.	8b 8d#/	.	8f#/	-ty	.
8B 8F#/	.	8a# 8e/	.	8f#/	sie-	.
.	.	.	.	8qa#/	.	.
8A# 8F#/	.	8cc# 8e/	.	8.g#/	-lo-	.
8A#J 8F#/	.	8f#J 8e/	.	.	.	.
.	.	.	.	16f#/	-ny	.
=29	=29	=29	=29	=29	=29	=29
8F#/L	2BB\	8f#L 8d#/	.	2b\	wia-	.
8F#/J	.	8dd# 8d#/	.	.	.	.
8d#/L	.	8b 8f#/	.	.	.	.
8c#/	.	8a# 8f#/	.	.	.	.
8.e/	4r	8a# 8f#/	.	4f#/	-nek	.
.	.	8cc#J 8f#/	.	.	.	.
16A#/Jk	.	.	.	.	.	.
=30	=30	=30	=30	=30	=30	=30
8B/L	(2.BB\	8ff#L 8f#/	.	4f#/	na	.
8d# 8B/	.	8ff# 8f#/	.	.	.	.
8d# 8B/	.	8dd# 8f#/	.	8d#/	mo-	.
8B/	.	8b 8f# 8d#/	.	8f#/	-ją	.
8B/	.	8f# 8d#/	.	8.b\	gło-	.
8B/J	.	8g#J 8d#/	.	.	.	.
.	.	.	.	16cc#\	-wę	.
*v	*v	*	*	*	*	*
=31	=31	=31	=31	=31	=31
(4C#\)	8g#L 8e 8B/	.	4b\	wło-	.
.	8g# 8e 8B/	.	.	.	.
4F#\	8f# 8c# 8A#/	.	8a#/	-ży,	.
.	8a# 8f# 8c#/	.	8r	.	.
[4G#\)	8b 8d# 8B/	.	4b\	Ej	.
.	8bJ 8d# 8B/	.	.	.	.
!!LO:PB:g=original
=32	=32	=32	=32	=32	=32
*^	*	*	*	*	*
8G#/L]	2E\	8eeL 8e/	.	(4ee\	Jan-	.
8A# 8F#/	.	8ee 8e/	.	.	.	.
8B 8G#/	.	8dd# 8e/	.	8dd#\)	.	.
8c# 8A#/	.	8cc# 8e/	.	8cc#\	-ku,	.
8d# 8B/	4F#\	8b 8e/	.	8b\	pię-	.
8eJ 8c#/	.	8a#J 8e/	.	8a#/	-kny	.
=33	=33	=33	=33	=33	=33	=33
8B/L	(2G#\	8bL 8e/	.	2b\	ra-	.
8B/	.	8b 8e/	.	.	.	.
8B/	.	8b 8d#/	.	.	.	.
8B/	.	8b 8d#/	.	.	.	.
8B/	4E\)	8g# 8e/	.	4g#/	-nek	.
8B/J	.	8g#J 8e/	.	.	.	.
=34	=34	=34	=34	=34	=34	=34
*	*	*^	*	*	*	*
!	!	!LO:TX:i:a:t=ac-ce-le-ran-do:ext2=cd:dur=3h	!	!	!LO:TX:i:a:t=ac-ce-le-ran-do:ext2=cd:dur=3h	!	!
8A#/L	8F#\L	8f#/L	8e\L	.	4f#/	pię-	.
8A#/	8F#\	8f#/	8e\	.	.	.	.
8B/	8F#\	8g#/	8e\	.	8g#/	-kną	.
8A#/	8F#\	8a#/	8e\	.	8a#/	nam	.
8G#/	8F#\	8b/	8e\	.	8b\	do-	.
8A#/J	8F#\J	8cc#/J	8e\J	.	8cc#\	-lę	.
*	*	*v	*v	*	*	*	*
=35	=35	=35	=35	=35	=35	=35
8A#/L	(4F##X\	8dd#L 8d#/	.	2dd#\	wró-	.
8A#/	.	8a# 8d#/	.	.	.	.
8B/	4G#\	8b 8d#/	.	.	.	.
8B/	.	8f##X 8d#/	.	.	.	.
8B/	4E#X\)	8a# 8c##X/	.	4cc#\	-ży,	.
8B/J	.	8g#J 8c##/	.	.	.	.
*v	*v	*	*	*	*	*
!!LO:LB:g=original
=36	=36	=36	=36	=36	=36
*	*^	*	*	*	*
8BL 8F#\	4f#/	8d#\L	.	4f#/	Ej	.
8B 8F#\	.	8d#\	.	.	.	.
8B 8F#\	8dd#/L	8d#\	.	8b\	spiesz-	.
8c# 8F#\	8cc#/	8e\	.	8a#/	-cie	.
8G# 8F#\	8.ee/	8e\	.	(8.cc#\	la-	.
8c#J 8F#\	.	8e\J	.	.	.	.
.	16a#/Jk	.	.	16f#/)	-sem,	.
*	*v	*v	*	*	*	*
=37	=37	=37	=37	=37	=37
8BL 8F# 8BB\	8bL 8d#/	<	2b\	bło-	.
8B 8F# 8BB\	8b 8d#/	.	.	.	.
8B 8F# 8BB\	8b 8d#/	.	.	.	.
8B 8F# 8BB\	8b 8d#/	.	.	.	.
!	!	!	!LO:TX:i:a:t=rallent.	!	!
8B 8F# 8BB\	8b 8d#/	.	4dd#\	-nią,	.
8BJ 8F# 8BB\	8bJ 8d#/	[[	.	.	.
=38	=38	=38	=38	=38	=38
8BL 8F# 8BB\	8bL 8f# 8d#/	>	8ff#\	bo	.
8B 8F# 8BB\	8b 8f# 8d#/	.	[8gg#\	dro-	.
8B 8F# 8BB\	8b 8f# 8d#/	.	16gg#\LL]	.	.
.	.	.	16ff#\JJ	.	.
8B 8F# 8BB\	8b 8f# 8d#/	.	16dd#\LL	-ga	.
.	.	.	16b\JJ	.	.
8B 8F# 8BB\	8b 8f# 8d#/	.	8f#/	nam	.
8BJ 8F# 8BB\	8bJ 8f# 8d#/	]]	16b\LL	da-	.
.	.	.	16cc#\JJ	.	.
=39	=39	=39	=39	=39	=39
!	!	!	!LO:TX:B:a:t=a tempo.	!	!
8F#\L	8bL 8f# 8c#/	<	4b\	-le-	.
8F#\	8b 8f# 8c#/	.	.	.	.
8F#\	8a# 8f# 8c#/	.	4a#/	-ka!	.
8F#\	8a# 8e 8c#/	.	.	.	.
8G#\	8b 8d# 8B/	.	8r	.	.
8G#\J	8bJ 8g# 8d#/	[[	8b\	w ko-	.
=40	=40	=40	=40	=40	=40
*^	*	*	*	*	*
4G#/	8C#\L	8eeL 8e/	>	(4ee\	-ście-	.
.	8C#\	8cc# 8e/	.	.	.	.
8F##X/L	8D#\	8a# 8d#/	.	8dd#\)	.	.
8G#/	8D#\	8a# 8f##X/	.	8cc#\	-le	.
8.d#/	8D#\	8b 8f##/	.	8.b\	da-	.
.	8D#\J	8a#J 8f##/	]]	.	.	.
16c#/Jk	.	.	.	16a#/	-wno	.
!!LO:LB:g=original
=41	=41	=41	=41	=41	=41	=41
8B/L	8G#\L	8bL 8g#/	.	2b\	dzwo-	.
8B/	8G#\	8b 8g# 8d#/	.	.	.	.
8B/	8G#\	8b 8g# 8d#/	.	.	.	.
8B/	8G#\J	8b 8g# 8d#/	.	.	.	.
8c##X/	8BL 8E#X\	8b 8g#/	.	4g#/	-nią,	.
8c##/J	8BJ 8E#\	8bJ 8g#/	.	.	.	.
*v	*v	*	*	*	*	*
=42	=42	=42	=42	=42	=42
8d#L 8B 8F#\	8ff#L 8b 8f#/	<	4f#/	xiądz	.
8d# 8B 8F#\	8ff# 8b 8f#/	.	.	.	.
!	!	!	!	!	!LO:DY:a
8d# 8B 8F#\	8ff# 8b 8f#/	.	8b\	przed	<
8e 8c# 8F#\	8ff# 8a# 8f#/	.	8a#/	oł-	.
8B 8G# 8F#\	8ff# 8dd# 8f#/	.	8.dd#\	-ta-	.
8c#J 8A# 8E\	8ff#J 8cc# 8f#/	[[	.	.	.
.	.	.	16cc#\	-rzem	[[
=43	=43	=43	=43	=43	=43
*^	*	*	*	*	*
*ped	*	*	*	*	*	*
!	!	!	!	!	!	!LO:DY:a
!	!	!	!	!LO:TX:i:b:t=rallent.	!	!LO:DY:a
8D#L 8DD#/	4.DD#\	8ff#L 8b 8f#/	f	[2ff#\	cze-	f >
!	!	!LO:TX:i:b:t=rallent.	!	!	!	!
8B 8F# 8D#/	.	8ff# 8b 8f#/	.	.	.	.
8B 8F# 8D#/	.	8ff# 8b 8f#/	.	.	.	.
8B 8D#/	8ryy	8dd# 8b 8f#/	>	.	.	.
*Xped	*	*	*	*	*	*
8B 8D#/	8ryy	8b 8f#/	.	16ff#\LL]	.	.
.	.	.	.	16dd#\JJ	.	]
8BJ 8E/	8ryy	8g#J 8e/	]]	16b/LL	-ka,	.
.	.	.	.	16g#/JJ	.	.
*v	*v	*	*	*	*	*
=44	=44	=44	=44	=44	=44
!	!LO:TX:i:b:t=colla parte	!	!LO:TX:B:a:t=lento.	!	!
8BL 8F#\	8f#L 8d#/	.	4f#/	xiądz	.
8B 8F#\	8f# 8d#/	.	.	.	.
8B 8F#\	8dd# 8f#/	.	8dd#\	przed	.
8A# 8F#\	8cc# 8f#/	.	8cc#\	oł-	.
8G# 8F#;\	8ee 8e;/	.	8.ee;\	-ta-	.
8F#\J	8a#J 8e/	.	.	.	.
.	.	.	16a#/	-rzem	.
!!LO:LB:g=original
=45	=45	=45	=45	=45	=45
*	*^	*	*	*	*
!	!LO:TX:B:b:t=a tempo.	!	!	!	!	!
8F#L 8BB\	(2b/	8d#\L	.	2b\	cze-	.
8F# 8BB\	.	8d#\	.	.	.	.
8F# 8BB\	.	8d#\	.	.	.	.
8F# 8BB\	.	8d#\	.	.	.	.
8B 8F# 8BB\	4dd#/)	8d#\	.	4b\	-ka!	.
8BJ 8F# 8BB\	.	8d#\J	.	.	.	.
=46	=46	=46	=46	=46	=46	=46
!	!LO:TX:i:a:t=dolce	!	!	!	!	!
8A#L 8F# 8BB\	(4.ff#^/	8e\L	.	2.r	.	.
8A# 8F# 8BB\	.	8e\	.	.	.	.
8A# 8F# 8BB\	.	8e\	.	.	.	.
8A# 8F# 8BB\	8ee/L	8e\	.	.	.	.
!	!LO:TX:i:b:t=ral-lent.:ext2=cd:dur=2qe	!	!	!	!	!
8A# 8F# 8BB\	8dd#/	8e\	.	.	.	.
8A#J 8F# 8BB\	8cc#/J	8e\J	.	.	.	.
=47	=47	=47	=47	=47	=47	=47
8BL 8G# 8BB\	4.b/	8e\L	.	2.r	.	.
8B 8G# 8BB\	.	8e\	.	.	.	.
8B 8G# 8BB\	.	8e\	.	.	.	.
8B 8G# 8BB\	8a#/L	8e\	.	.	.	.
8A# 8BB\	8g#/	8e\	.	.	.	.
8A#J 8BB\	8f#/J)	8e\J	.	.	.	.
=48	=48	=48	=48	=48	=48	=48
!	!LO:TX:B:a:t=lento.	!	!	!	!	!
8qBB/	.	.	.	.	.	.
(8B\L	(4f#/	4.d#^\	pp	2.r	.	.
8A#X\	.	.	.	.	.	.
8An\	8b/L	.	.	.	.	.
8A-X\	8b-X/	8fn 8dn\	.	.	.	.
8Gn\	8cc#X/	4en\	.	.	.	.
[<8F#\J	[8f#XJ 8A#X/)	.	.	.	.	.
=49	=49	=49	=49	=49	=49	=49
2.F#] 2.BB;\)	(2f#;/]	2.d# 2.B\	.	2.r;	.	.
.	8b/)	.	.	.	.	.
.	8r	.	.	.	.	.
*	*v	*v	*	*	*	*
==	==	==	==	==	==
*-	*-	*-	*-	*-	*-
!!!system-decoration: (p1){(p2)}
!!!ENC: Berenika Jozajtis
!!!END: 2022-08-18
!!!ENC: Kamil Watkowski
!!!END: 2022-09-22
!!!RDF**kern: > = above
!!!RDF**kern: < = below
!!!YEC: Copyright 2022 Narodowy Instytut Fryderyka Chopina (https://polishscores.org)
!!!YEM: License CC-BY-4.0 (https://creativecommons.org/licenses/by/4.0)
